public/images/hashed/67ff723a3b19fb92f224f569809928fb.svg

<?xml version="1.0" encoding="UTF-8"?>
<svg width="80px" height="80px" viewBox="0 0 80 80" version="1.1" xmlns="http://www.w3.org/2000/svg" xmlns:xlink="http://www.w3.org/1999/xlink">
    <!-- Generator: Sketch 64 (93537) - https://sketch.com -->
    <title>Icon-Architecture/64/Arch_AWS-Deepracer_64</title>
    <desc>Created with Sketch.</desc>
    <defs>
        <linearGradient x1="0%" y1="100%" x2="100%" y2="0%" id="linearGradient-1">
            <stop stop-color="#055F4E" offset="0%"></stop>
            <stop stop-color="#56C0A7" offset="100%"></stop>
        </linearGradient>
    </defs>
    <g id="Icon-Architecture/64/Arch_AWS-Deepracer_64" stroke="none" stroke-width="1" fill="none" fill-rule="evenodd">
        <g id="Icon-Architecture-BG/64/Machine-Learning" fill="url(#linearGradient-1)">
            <rect id="Rectangle" x="0" y="0" width="80" height="80"></rect>
        </g>
        <path d="M40.3660145,46.4532689 L40.5862418,44.4454688 C38.7731373,44.2505465 36.9027135,46.1189722 36.0891797,48.8973717 C35.417436,51.1909905 35.6809043,53.4118922 36.7589121,54.5531468 L38.2180438,53.1624321 C37.7444042,52.6604821 37.5121096,51.1950304 38.0179286,49.4669891 C38.5941398,47.5016072 39.7737136,46.3815618 40.3660145,46.4532689 L40.3660145,46.4532689 Z M20.6863396,46.6724302 L20.8924885,44.6636201 C19.0049694,44.4666779 17.0430355,46.3351036 16.1792215,49.0983537 C15.4571976,51.4111618 15.7387668,53.6472129 16.8952117,54.7955372 L18.3090912,53.3583643 C17.8083003,52.8614641 17.5649441,51.4121717 18.0979144,49.7033197 C18.7415011,47.6470414 20.014596,46.5956733 20.6863396,46.6724302 L20.6863396,46.6724302 Z M43.7840632,36.8970289 L44.5986027,35.0488024 C44.5020647,35.0073941 34.9598861,30.8978675 29.1062639,41.2691451 L30.8560152,42.2659754 C35.7915208,33.5187133 43.4592531,36.7556345 43.7840632,36.8970289 L43.7840632,36.8970289 Z M64.6956032,47.5450355 L64.0681062,49.2912561 L63.0122217,51.8737234 C62.9287566,52.0726855 62.7869664,52.2332691 62.6119913,52.3423447 L62.6361258,52.8402549 C62.6572434,54.0330175 62.3163436,55.0045989 61.6526448,55.6822819 C61.2131958,56.1317141 60.6450294,56.4225825 59.9793194,56.5882159 L59.8707141,56.8346461 C60.0658013,56.8356561 60.2679278,56.8346461 60.4750823,56.8336361 C63.0373618,56.8174768 64.6895696,56.082226 65.3864533,54.649093 C66.4071416,52.5483765 66.1074716,49.9043017 64.6956032,47.5450355 L64.6956032,47.5450355 Z M67.1935241,55.5358378 C66.4644611,57.0346182 64.7106873,58.8262869 60.4891607,58.8535558 C60.3242416,58.8545658 60.1623393,58.8545658 60.0054651,58.8545658 C59.0652251,58.8545658 58.3140388,58.8384064 58.3140388,58.8384064 C57.978167,58.8313367 57.6674353,58.6556037 57.4864265,58.370795 C57.3064233,58.0859863 57.279272,57.7294705 57.4150286,57.4204228 L57.7106762,56.7487995 L45.6967225,56.7487995 C44.45279,56.7487995 43.3446142,56.2862379 42.6517529,55.48029 C42.3732005,55.1540729 42.1680572,54.7803878 42.0443679,54.373374 C41.6149749,55.178312 41.1393241,55.8792241 40.6194267,56.4710606 C39.7596351,57.4507216 37.9756932,58.8878945 36.1495159,58.8878945 C35.841801,58.8878945 35.5340861,58.8464861 35.229388,58.7565997 C32.2025193,57.8617753 31.1134499,53.1109242 32.6972766,47.7046092 C34.2881425,42.276075 37.8902168,38.7169765 40.9009959,39.609781 C41.2127332,39.7026973 41.5124033,39.8410618 41.78995,40.0218447 L40.6998751,41.7185772 C40.5822194,41.6428302 40.4595356,41.5852625 40.3328295,41.547894 C38.7158179,41.069173 35.9644847,43.711228 34.6260255,48.2752365 C33.3046615,52.787737 34.1644532,56.3367359 35.7965488,56.8184867 C36.7086319,57.0871361 38.1989373,56.1751423 39.1110204,55.1358937 C40.0844453,54.0269578 40.8899343,52.4019324 41.5043584,50.3062657 C42.107721,48.2419078 42.2967746,46.1694702 42.0343119,44.4757676 C41.9508467,43.936449 42.3088418,43.4284392 42.8428177,43.3274432 C43.3717655,43.2264472 43.8936741,43.5688236 44.0103242,44.1020824 C44.5121207,46.3825717 44.485975,49.4306305 43.9318871,53.1594022 C43.8705452,53.5654061 43.9530047,53.9017227 44.1762489,54.1612824 C44.480947,54.5167883 45.0491134,54.7288798 45.6967225,54.7288798 L58.7303589,54.7288798 C59.4171866,54.7288798 59.9179775,54.573346 60.2186532,54.2663182 C60.4992168,53.9794896 60.6369845,53.5219778 60.6259229,52.9069123 L60.6058108,52.4988885 L59.2261218,52.4978786 C58.9143845,52.4978786 58.6207481,52.3534543 58.4306889,52.1060141 C58.2396241,51.858574 58.1742598,51.5363968 58.2526969,51.2334088 L58.4246552,50.5708752 C58.4457729,50.4900784 58.4769467,50.4123115 58.5161652,50.3395944 L53.6389847,50.2557677 C52.9923812,50.2557677 52.3950523,50.5910744 52.0541524,51.1384726 L51.8892333,51.7484884 C51.770572,52.1888308 51.3723528,52.4938387 50.9188253,52.4938387 L46.9336157,52.4928288 C46.4378528,52.5907949 45.952146,52.2958866 45.7882325,51.8181756 C45.634375,51.3727833 45.4805176,50.70217 45.2844247,49.8527937 C45.0883319,49.0094773 44.8459813,47.959119 44.5463112,46.8915915 L46.4810938,46.3431833 C46.7948423,47.456159 47.0432265,48.5317663 47.2433418,49.3962919 C47.3348518,49.7932061 47.4203281,50.1618414 47.4977597,50.4729091 L50.149538,50.473919 C50.1706557,50.399182 50.1988126,50.3274749 50.23602,50.2598076 C50.9178196,49.0114972 52.2220883,48.235848 53.6389847,48.235848 L58.4668906,48.235848 C59.2050041,48.235848 59.8707141,48.6176129 60.2468101,49.2548975 C60.4700542,49.6336324 60.564581,50.0598355 60.5303905,50.4789688 L61.408283,50.4789688 L62.1926543,48.564085 L62.9187005,46.5401255 C63.4878725,44.9494387 63.8860918,43.2880548 64.1012911,41.6004119 L64.9761668,33.7903924 C65.2336015,31.7674429 64.7690123,29.8969973 63.6668701,28.5083025 C62.5315429,27.0781994 60.8853688,26.2358929 59.1507015,26.1975144 C59.0873484,26.1965044 59.0260066,26.1894347 58.9636591,26.1752953 L55.5385711,26.1177276 C55.3565567,26.105608 52.705784,25.9207854 50.6895475,28.5285017 C50.4220568,28.873908 49.9635012,29.0052027 49.5582427,28.8607785 C49.1479562,28.7143343 48.8794599,28.3214599 48.8895159,27.8851573 C48.9086224,27.06204 49.5843884,25.5440704 51.0726827,24.4432141 C36.6161163,22.5000514 30.7504268,27.6064084 28.4908341,31.0271423 L26.5952701,34.4014182 C26.565102,34.454946 26.5299058,34.505444 26.4906873,34.5529121 C25.4589373,35.788093 23.5301884,37.2343555 20.2549354,37.1444691 C17.6856166,37.3080826 15.8332936,38.6281001 14.8377454,41.0641232 C14.5984116,41.7276668 14.3590778,42.5184654 14.3399713,42.7194474 C14.3299153,42.8184235 14.3057808,42.929519 14.2675678,43.030515 C14.2022036,43.3759213 14.1549402,43.709208 14.119744,44.0212856 C14.3952796,43.7900048 14.6627703,43.5678137 14.9222162,43.3547121 C15.3043458,43.0396047 15.8584337,43.0517242 16.2284961,43.382991 C16.5975528,43.7142578 16.6719676,44.2646859 16.4044768,44.6828093 C15.725694,45.7422572 15.151494,46.9905676 14.7442242,48.2924058 C14.505896,49.0569454 14.3248873,49.8376443 14.2082372,50.6102636 L14.0644358,52.1645918 C13.825102,54.7470591 14.3701395,56.3175467 15.6844642,56.8346461 C16.9485087,57.3305364 18.4227245,56.435712 19.3016226,55.5176585 C20.5284598,54.2329896 21.5652377,52.3756734 22.2168693,50.2901063 C23.1480588,47.3076949 23.1279467,44.3000345 22.1655835,42.6265311 L23.9082956,41.6165712 C25.1572561,43.7889949 25.2447436,47.3440535 24.1355622,50.8940623 C23.7172308,52.2312492 23.1510756,53.4876392 22.4823488,54.6036448 L29.9338762,54.6036448 L29.9338762,56.6235645 L21.013161,56.6235645 C20.9256734,56.7215306 20.8401971,56.8235365 20.7517039,56.9164529 C19.6948139,58.020339 18.1220489,59 16.4577738,59 C15.9589942,59 15.4541808,58.9131435 14.9513787,58.7151913 C13.4047594,58.1071955 11.6479688,56.4448016 12.0612721,51.9817891 C12.0652946,51.9302811 12.0934515,51.632343 12.214124,50.3638334 C12.3528974,49.4326504 12.5560294,48.5509555 12.8255314,47.6874398 C12.869778,47.5450355 12.9160357,47.4036411 12.9643047,47.2632567 C12.8647499,47.2541671 12.7672063,47.231948 12.6726795,47.1925595 C12.3227293,47.0491452 12.0823898,46.7209083 12.0512161,46.3431833 C12.0451825,46.2714761 11.9064091,44.564644 12.3197124,42.5083658 C12.3297685,42.4588778 12.3438469,42.4114096 12.3599366,42.3639415 C12.4645194,41.748876 12.8064249,40.7661851 12.9632991,40.3349322 C14.2715903,37.1293197 16.7765504,35.3416908 20.2227561,35.1265693 C21.5069127,35.1639378 22.6000045,34.932657 23.5040427,34.4418165 L12.8617331,34.4418165 L12.8617331,32.4218969 L25.3986011,32.4218969 L26.7782901,29.9717343 C26.9009738,29.7859017 27.0367304,29.5940093 27.1785206,29.400097 L21.9232328,29.400097 L21.9232328,27.3801773 L28.948384,27.3801773 C30.0756664,26.3005303 31.5297701,25.2340127 33.3911435,24.3381783 L17.8897543,24.3381783 L17.8897543,22.3182586 L40.072378,22.3182586 L40.072378,22.3536072 C44.071666,21.754701 49.1187937,21.8526671 55.4852741,23.1444058 C55.9508688,23.239342 56.2817126,23.6453459 56.2917687,24.1119473 L59.121539,24.1584055 C59.1899201,24.1594154 59.2562899,24.1674951 59.3226598,24.1816345 C61.6083982,24.271521 63.7593857,25.3844967 65.2396351,27.2488826 C66.6836828,29.0698402 67.2991126,31.4775844 66.9732968,34.0317729 L66.0984211,41.8417923 C65.9566309,42.9527481 65.735398,44.0465346 65.4528232,45.1201219 C68.0281756,48.3449237 68.7300874,52.3756734 67.1935241,55.5358378 L67.1935241,55.5358378 Z M56.6316629,41.5074956 C57.7257603,41.4812366 58.5785127,40.7086173 58.7102468,39.6683587 L58.9013116,38.1665484 C58.2909099,38.9593669 57.3446363,39.4805062 56.270651,39.4805062 C55.6471764,39.4805062 55.0709651,39.2966935 54.5711798,38.9967354 L54.5530789,39.1361099 C54.4756474,39.7461256 54.6667122,40.3561414 55.0759931,40.8116333 C55.4722012,41.2539957 56.039362,41.5074956 56.6316629,41.5074956 L56.6316629,41.5074956 Z M54.9482814,36.1314794 C54.9482814,36.8637002 55.5415879,37.4605865 56.270651,37.4605865 C57.0007196,37.4605865 57.5950317,36.8637002 57.5950317,36.1314794 C57.5950317,35.3982485 57.0007196,34.8023722 56.270651,34.8023722 C55.5415879,34.8023722 54.9482814,35.3982485 54.9482814,36.1314794 L54.9482814,36.1314794 Z M55.3827024,32.6006598 L55.3404671,32.9319266 C55.6381259,32.8440601 55.9458408,32.7824525 56.270651,32.7824525 C57.6392783,32.7824525 58.8148297,33.6146594 59.3276878,34.8003523 L59.5398703,33.1329086 C59.6183075,32.5239028 59.4262371,31.9128771 59.0179617,31.4563753 C58.6187369,31.0130029 58.0555985,30.7615229 57.4643032,30.7615229 C57.4462023,30.7615229 57.429107,30.7615229 57.4120118,30.7625329 C56.367189,30.7877818 55.513431,31.5604011 55.3827024,32.6006598 L55.3827024,32.6006598 Z M56.7271953,43.5264053 C55.4691844,43.5264053 54.3589973,43.0295051 53.5826709,42.1649794 C52.7801987,41.2721749 52.4061139,40.0753725 52.5579602,38.88059 L53.386578,32.3451399 C53.6460239,30.3080509 55.3173382,28.7931112 57.3617316,28.7436231 C58.552367,28.7001949 59.7078062,29.2092146 60.511284,30.104039 C61.3127506,30.9968435 61.6868354,32.1936459 61.5359947,33.3874185 L61.5359947,33.3884284 L60.7063712,39.9238786 C60.4469253,41.9609676 58.7756111,43.4759073 56.7312177,43.5264053 L56.7271953,43.5264053 Z" id="AWS-Deepracer_Icon_64_Squid" fill="#FFFFFF"></path>
    </g>
</svg>

<svg xmlns="http://www.w3.org/2000/svg" width="80" height="80"><defs><linearGradient id="a" x1="0%" x2="100%" y1="100%" y2="0%"><stop offset="0%" stop-color="#055F4E"/><stop offset="100%" stop-color="#56C0A7"/></linearGradient></defs><g fill="none" fill-rule="evenodd"><path fill="url(#a)" d="M0 0h80v80H0z"/><path fill="#FFF" d="m40.366 46.453.22-2.008c-1.813-.194-3.683 1.674-4.497 4.452-.672 2.294-.408 4.515.67 5.656l1.459-1.39c-.474-.503-.706-1.968-.2-3.696.576-1.965 1.756-3.085 2.348-3.014Zm-19.68.22.206-2.01c-1.887-.196-3.849 1.672-4.713 4.435-.722 2.313-.44 4.55.716 5.698l1.414-1.438c-.5-.497-.744-1.946-.211-3.655.644-2.056 1.917-3.107 2.588-3.03Zm23.098-9.776.815-1.848c-.097-.042-9.64-4.151-15.493 6.22l1.75.997c4.936-8.747 12.603-5.51 12.928-5.369Zm20.912 10.648-.628 1.746-1.056 2.583c-.083.199-.225.36-.4.468l.024.498c.021 1.193-.32 2.165-.983 2.842-.44.45-1.008.74-1.674.906l-.108.247.604-.001c2.562-.017 4.215-.752 4.911-2.185 1.021-2.1.721-4.745-.69-7.104Zm2.498 7.99c-.73 1.5-2.483 3.291-6.705 3.319a87.728 87.728 0 0 1-2.175-.015 1.007 1.007 0 0 1-.828-.468 1.015 1.015 0 0 1-.071-.95l.296-.672H45.697c-1.244 0-2.352-.463-3.045-1.269a3.076 3.076 0 0 1-.608-1.107c-.429.805-.905 1.506-1.425 2.098-.86.98-2.643 2.417-4.47 2.417-.307 0-.615-.042-.92-.131-3.026-.895-4.116-5.646-2.532-11.052 1.591-5.429 5.193-8.988 8.204-8.095.312.093.611.231.889.412l-1.09 1.697a1.421 1.421 0 0 0-.367-.171c-1.617-.479-4.369 2.163-5.707 6.727-1.321 4.513-.462 8.062 1.17 8.543.913.27 2.403-.643 3.315-1.682.973-1.109 1.779-2.734 2.393-4.83.604-2.064.793-4.137.53-5.83a1.01 1.01 0 0 1 .809-1.149 1.007 1.007 0 0 1 1.167.775c.502 2.28.476 5.329-.078 9.057-.061.406.021.743.244 1.002.305.356.873.568 1.52.568H58.73c.687 0 1.188-.156 1.489-.463.28-.287.418-.744.407-1.36l-.02-.407-1.38-.001a1.012 1.012 0 0 1-.973-1.264l.172-.663c.02-.08.052-.159.091-.231l-4.877-.084c-.647 0-1.244.335-1.585.882l-.165.61c-.118.44-.517.746-.97.746l-3.985-.001a1.011 1.011 0 0 1-1.146-.675c-.154-.445-.307-1.116-.504-1.965-.196-.844-.438-1.894-.738-2.961l1.935-.549c.314 1.113.562 2.189.762 3.053.092.397.177.766.255 1.077h2.652c.02-.074.049-.146.086-.213a3.879 3.879 0 0 1 3.403-2.024h4.828a2.05 2.05 0 0 1 1.78 1.019c.223.379.318.805.283 1.224h.878l.785-1.915.726-2.024c.569-1.59.967-3.252 1.182-4.94l.875-7.81c.258-2.023-.207-3.893-1.31-5.282-1.134-1.43-2.78-2.272-4.515-2.31a.901.901 0 0 1-.187-.023l-3.425-.057c-.182-.012-2.833-.197-4.85 2.41a1.006 1.006 0 0 1-1.8-.643c.02-.823.695-2.34 2.184-3.442C36.616 22.5 30.75 27.606 28.49 31.027l-1.896 3.374a1.04 1.04 0 0 1-.104.152c-1.032 1.235-2.96 2.681-6.236 2.591-2.57.164-4.422 1.484-5.417 3.92-.24.664-.479 1.454-.498 1.655-.01.1-.034.21-.072.312-.066.345-.113.678-.148.99.275-.231.543-.453.802-.666a1.001 1.001 0 0 1 1.306.028c.37.331.444.882.176 1.3a15.181 15.181 0 0 0-1.66 3.61c-.238.764-.42 1.545-.536 2.317l-.144 1.555c-.239 2.582.306 4.153 1.62 4.67 1.265.496 2.739-.4 3.618-1.317 1.226-1.285 2.263-3.142 2.915-5.228.931-2.982.91-5.99-.051-7.663l1.742-1.01c1.25 2.172 1.337 5.727.228 9.277a17.303 17.303 0 0 1-1.654 3.71h7.452v2.02h-8.92c-.088.098-.174.2-.262.292C19.695 58.02 18.122 59 16.458 59a4.078 4.078 0 0 1-1.507-.285c-1.546-.608-3.303-2.27-2.89-6.733.004-.052.032-.35.153-1.618a17.653 17.653 0 0 1 .75-3.1 1.007 1.007 0 0 1-.913-.92c-.006-.073-.145-1.78.269-3.836.01-.05.024-.097.04-.144.105-.615.446-1.598.603-2.03 1.309-3.205 3.814-4.992 7.26-5.207 1.284.037 2.377-.194 3.281-.685H12.862v-2.02h12.537l1.38-2.45c.122-.186.258-.378.4-.572h-5.256v-2.02h7.025c1.128-1.08 2.582-2.146 4.443-3.042H17.89v-2.02h22.182v.036c4-.6 9.047-.501 15.413.79.466.095.797.501.807.968l2.83.046c.068.001.134.01.2.024 2.286.09 4.437 1.202 5.918 3.067 1.444 1.82 2.06 4.229 1.733 6.783l-.875 7.81a25.63 25.63 0 0 1-.645 3.278c2.575 3.225 3.277 7.256 1.74 10.416ZM56.632 41.508c1.094-.026 1.947-.798 2.078-1.839l.191-1.501a3.316 3.316 0 0 1-2.63 1.314c-.624 0-1.2-.184-1.7-.484l-.018.14c-.077.61.114 1.22.523 1.675.396.442.963.695 1.556.695Zm-1.684-5.376c0 .733.594 1.33 1.323 1.33a1.329 1.329 0 0 0 0-2.659c-.73 0-1.323.596-1.323 1.33Zm.435-3.53-.043.33c.298-.087.606-.149.93-.149 1.37 0 2.545.833 3.058 2.018l.212-1.667a2.11 2.11 0 0 0-.522-1.677 2.089 2.089 0 0 0-1.554-.694h-.052a2.086 2.086 0 0 0-2.03 1.839Zm1.344 10.925c-1.258 0-2.368-.496-3.144-1.361a4.13 4.13 0 0 1-1.025-3.284l.829-6.536a4.091 4.091 0 0 1 3.975-3.601 4.056 4.056 0 0 1 3.15 1.36 4.136 4.136 0 0 1 1.024 3.283v.001l-.83 6.536a4.093 4.093 0 0 1-3.975 3.602h-.004Z"/></g></svg>
